packages/assets/static/images/icons/accessible-trails.svg

<svg width="24" height="24" viewBox="0 0 24 24" xmlns="http://www.w3.org/2000/svg" fill="currentColor" aria-hidden="true"> <path d="M19.8262 12.9342C21.0806 12.9342 22.1015 11.9133 22.1015 10.6589C22.1015 9.40451 21.0806 8.38357 19.8262 8.38357C18.5719 8.38357 17.5509 9.40451 17.5509 10.6589C17.5509 11.9133 18.5719 12.9342 19.8262 12.9342ZM19.8262 9.88357C20.2537 9.88357 20.6015 10.2314 20.6015 10.6589C20.6015 11.0864 20.2537 11.4342 19.8262 11.4342C19.3987 11.4342 19.0509 11.0864 19.0509 10.6589C19.0509 10.2314 19.3987 9.88357 19.8262 9.88357Z"/> <path d="M18.81 17.5345C18.3956 17.5345 18.06 17.8701 18.06 18.2845C18.06 19.8333 16.8 21.0933 15.2512 21.0933C13.7025 21.0933 12.4425 19.8333 12.4425 18.2845C12.4425 16.7358 13.7025 15.4758 15.2512 15.4758C15.6656 15.4758 16.0012 15.1401 16.0012 14.7258C16.0012 14.3114 15.6656 13.9758 15.2512 13.9758C12.8756 13.9758 10.9425 15.9089 10.9425 18.2845C10.9425 20.6601 12.8756 22.5933 15.2512 22.5933C17.6269 22.5933 19.56 20.6601 19.56 18.2845C19.56 17.8701 19.2244 17.5345 18.81 17.5345Z"/> <path d="M21.3515 15.5011H18.0722L18.9515 13.9701C19.1503 13.6251 19.0444 13.1845 18.7106 12.9679C16.3762 11.4492 13.364 11.6189 11.2153 13.3917C10.8956 13.6551 10.8506 14.1276 11.114 14.4473C11.3775 14.767 11.85 14.812 12.1697 14.5486C13.6256 13.3476 15.6 13.1095 17.2715 13.882L16.125 15.877C15.9919 16.1095 15.9919 16.3945 16.1259 16.6261C16.26 16.8576 16.5075 17.0001 16.7747 17.0001H20.4347L19.5975 21.187C19.5159 21.5929 19.7794 21.9886 20.1862 22.0692C20.2359 22.0795 20.2856 22.0842 20.3344 22.0842C20.685 22.0842 20.9981 21.8376 21.0694 21.4814L22.0865 16.3973C22.1306 16.177 22.0734 15.9483 21.9309 15.7748C21.7884 15.6014 21.5756 15.5001 21.3506 15.5001L21.3515 15.5011Z"/> <path d="M13.8253 10.8108C13.9594 10.5783 13.9594 10.2923 13.8253 10.0608L9.04029 1.78076C8.90623 1.5492 8.65873 1.40576 8.3906 1.40576C8.12248 1.40576 7.87498 1.54826 7.74092 1.78076L2.95592 10.0608C2.82185 10.2933 2.82185 10.5792 2.95592 10.8108C3.08998 11.0433 3.33748 11.1858 3.6056 11.1858H4.7456L1.98748 16.3326C1.86279 16.5651 1.86935 16.8454 2.00529 17.0723C2.14123 17.2992 2.38498 17.437 2.64842 17.437H7.47654V21.562C7.47654 21.9764 7.81217 22.312 8.22654 22.312C8.64092 22.312 8.97654 21.9764 8.97654 21.562V17.437H9.44529C9.85967 17.437 10.1953 17.1014 10.1953 16.687C10.1953 16.2726 9.85967 15.937 9.44529 15.937H3.90092L6.65904 10.7901C6.78373 10.5576 6.77717 10.2773 6.64123 10.0504C6.50529 9.82357 6.26154 9.68576 5.9981 9.68576H4.90498L8.3906 3.65482L11.8762 9.68576H10.7831C10.3687 9.68576 10.0331 10.0214 10.0331 10.4358C10.0331 10.8501 10.3687 11.1858 10.7831 11.1858H13.1756C13.4437 11.1858 13.6912 11.0423 13.8253 10.8108Z"/> </svg>

<svg viewBox="0 0 24 24" xmlns="http://www.w3.org/2000/svg" aria-hidden="true" fill="currentColor"><path d="M19.826 12.934a2.28 2.28 0 0 0 2.276-2.275 2.28 2.28 0 0 0-2.276-2.275 2.28 2.28 0 0 0-2.275 2.275 2.28 2.28 0 0 0 2.275 2.275m0-3.05a.776.776 0 0 1 0 1.55.776.776 0 0 1 0-1.55m-1.016 7.65a.75.75 0 0 0-.75.75 2.81 2.81 0 0 1-2.809 2.81 2.81 2.81 0 0 1-2.808-2.81 2.81 2.81 0 0 1 2.808-2.808.75.75 0 1 0 0-1.5 4.314 4.314 0 0 0-4.308 4.309 4.314 4.314 0 0 0 4.308 4.308 4.314 4.314 0 0 0 4.309-4.308.75.75 0 0 0-.75-.75"/><path d="M21.352 15.501h-3.28l.88-1.53a.75.75 0 0 0-.241-1.003 6.32 6.32 0 0 0-7.496.424.75.75 0 1 0 .955 1.157 4.82 4.82 0 0 1 5.102-.667l-1.147 1.995a.75.75 0 0 0 .65 1.123h3.66l-.837 4.187a.75.75 0 0 0 .736.897.75.75 0 0 0 .735-.603l1.018-5.084a.75.75 0 0 0-.736-.897z"/><path d="M13.825 10.81a.75.75 0 0 0 0-.75L9.04 1.78a.751.751 0 0 0-1.3 0l-4.784 8.28a.75.75 0 0 0 .65 1.126h1.14l-2.759 5.147a.75.75 0 0 0 .661 1.104h4.829v4.125a.75.75 0 1 0 1.5 0v-4.125h.468a.75.75 0 1 0 0-1.5H3.901l2.758-5.147a.75.75 0 0 0-.66-1.104H4.904l3.486-6.031 3.485 6.03h-1.093a.75.75 0 1 0 0 1.5h2.393a.75.75 0 0 0 .65-.374"/></svg>
